usr/share/icons/biglinux-icons-material-dark/16/devices/network-vpn.svg

<svg version="1.1" viewBox="0 0 16 16" xmlns="http://www.w3.org/2000/svg">
 <defs>
  <style id="current-color-scheme" type="text/css">.ColorScheme-Text {
        color:#dedede;
      }</style>
 </defs>
 <path d="m7.9512 4a2 2 0 0 0-1.9512 2 2 2 0 0 0 0.8418 1.6309l-0.8418 3.3691h4l-0.8418-3.3691a2 2 0 0 0 0.8418-1.6309 2 2 0 0 0-2-2 2 2 0 0 0-0.048828 0zm0.048828 1a1 1 0 0 1 1 1 1 1 0 0 1-1 1 1 1 0 0 1-1-1 1 1 0 0 1 1-1z" style="fill:currentColor" class="ColorScheme-Text"/>
 <path d="m8.0332 0a1.0001 1.0001 0 0 0-0.39453 0.068359l-6 2.3203a1.0001 1.0001 0 0 0-0.63867 0.93359v4.6777c2.199e-4 3.6617 2.6786 6.4307 6.2891 7.8008l0.35547 0.13477a1.0001 1.0001 0 0 0 0.70898 0l0.35547-0.13477a1.0001 1.0001 0 0 0 0.0019531 0c3.6106-1.3701 6.2888-4.1391 6.2891-7.8008v-4.6777a1.0001 1.0001 0 0 0-0.63867-0.93164l-6-2.3223a1.0001 1.0001 0 0 0-0.32812-0.068359zm-0.033203 1 6 2.3223v4.6777c-2e-4 3.1836-2.2835 5.5898-5.6445 6.8652l-0.35547 0.13477-0.35547-0.13477c-3.3609-1.2754-5.6443-3.6816-5.6445-6.8652v-4.6777l6-2.3223z" style="fill:currentColor" class="ColorScheme-Text"/>
</svg>

<svg xmlns="http://www.w3.org/2000/svg" viewBox="0 0 16 16">
<defs>
<style id="current-color-scheme" type="text/css">
.ColorScheme-Text{color:#dedede}
</style>
</defs>
<path d="M7.951 4A2 2 0 0 0 6 6a2 2 0 0 0 .842 1.63L6 11h4l-.842-3.37A2 2 0 0 0 10 6a2 2 0 0 0-2-2zM8 5a1 1 0 0 1 1 1 1 1 0 0 1-1 1 1 1 0 0 1-1-1 1 1 0 0 1 1-1" class="ColorScheme-Text" style="fill:currentColor"/>
<path d="M8.033 0a1 1 0 0 0-.394.068l-6 2.32A1 1 0 0 0 1 3.323V8c0 3.662 2.679 6.43 6.29 7.8l.355.136a1 1 0 0 0 .709 0l.355-.135h.002C12.321 14.43 15 11.66 15.001 8V3.322a1 1 0 0 0-.64-.931l-6-2.323A1 1 0 0 0 8.033 0M8 1l6 2.322V8c0 3.184-2.284 5.59-5.645 6.865L8 15l-.355-.135C4.284 13.59 2 11.184 2 8V3.322z" class="ColorScheme-Text" style="fill:currentColor"/>
</svg>
